public/icons/tokens/pools/guni.svg

<svg width="256" height="256" viewBox="0 0 256 256" fill="none" xmlns="http://www.w3.org/2000/svg">
<path d="M128 256C198.692 256 256 198.692 256 128C256 57.3076 198.692 0 128 0C57.3076 0 0 57.3076 0 128C0 198.692 57.3076 256 128 256Z" fill="white"/>
<path d="M199.613 151.871H56.3965V199.613H199.613V151.871Z" fill="#FFB0A6"/>
<path d="M199.613 104.129H56.3965V151.871H199.613V104.129Z" fill="#FFD0A8"/>
<path d="M199.613 56.3967H56.3965V104.139H199.613V56.3967Z" fill="#FFE8D7"/>
<path d="M174.182 56.3967H199.613V30.9653C198.695 37.3847 195.72 43.3333 191.135 47.9186C186.55 52.5039 180.601 55.4787 174.182 56.3967Z" fill="#FFE8D7"/>
<path d="M127.971 56.3968L182.565 81.6537L163.831 92.1984L127.971 56.3968ZM199.584 56.3968V81.6537H182.565L127.971 136.248V146.812L140.793 159.634L155.263 149.942L180.627 140.871H198.431C195.984 154.259 189.773 166.673 180.524 176.658C171.275 186.643 159.372 193.785 146.21 197.247C133.047 200.71 119.171 200.349 106.206 196.208C93.2409 192.067 81.7249 184.316 73.0072 173.864C64.2894 163.412 58.731 150.693 56.9832 137.195C55.2354 123.698 57.3707 109.981 63.1388 97.654C68.9069 85.3266 78.0689 74.8984 89.5513 67.5913C101.034 60.2843 114.361 56.4011 127.971 56.3968V26.7301C104.539 26.7289 81.8322 34.8524 63.7185 49.7164C45.6049 64.5804 33.2056 85.2652 28.6332 108.246C24.0608 131.228 27.5983 155.083 38.643 175.749C49.6877 196.414 67.5561 212.61 89.2037 221.578C110.851 230.546 134.939 231.73 157.362 224.93C179.785 218.129 199.156 203.763 212.174 184.281C225.193 164.799 231.054 141.405 228.758 118.086C226.462 94.7675 216.152 72.9661 199.584 56.3968ZM149.06 46.8601C149.077 47.7381 148.842 48.6025 148.382 49.3509C147.907 50.0889 147.236 50.6797 146.444 51.0566C145.539 51.4655 144.558 51.677 143.565 51.677C142.572 51.677 141.591 51.4655 140.687 51.0566C139.893 50.681 139.222 50.0899 138.748 49.3509C138.289 48.6025 138.053 47.7381 138.07 46.8601V31.4307H132.381V47.3059C132.346 48.9736 132.834 50.6104 133.776 51.987C134.757 53.3645 136.098 54.4444 137.653 55.1078C141.411 56.5939 145.593 56.5939 149.351 55.1078C150.905 54.4419 152.246 53.3624 153.228 51.987C154.17 50.6104 154.658 48.9736 154.623 47.3059V31.4307H148.934L149.06 46.8601ZM176.624 31.4307V46.8019H176.43L164.8 31.4307H159.809V55.8735H165.498V40.4925H165.692L177.399 55.8735H182.303V31.4307H176.624ZM187.343 31.4307V55.8735H193.032V31.4307H187.343Z" fill="url(#paint0_linear_1611_1878)"/>
<path d="M209.625 68.0367C221.791 85.528 227.078 106.893 224.471 128.04C221.864 149.186 211.548 168.628 195.498 182.641C179.448 196.654 158.792 204.254 137.487 203.984C116.182 203.714 95.7254 195.594 80.0352 181.179C79.5797 180.762 79.1436 180.326 78.6881 179.9C78.2325 179.473 77.7964 179.066 77.37 178.64L77.0501 178.31C65.6683 166.816 57.7366 152.36 54.1552 136.586C50.5737 120.811 51.486 104.348 56.7885 89.0649C62.0909 73.7823 71.5712 60.292 84.1533 50.1252C96.7355 39.9584 111.916 33.5221 127.971 31.5469V26.701C105.201 26.7046 83.0971 34.3815 65.2271 48.4926C47.357 62.6036 34.7638 82.3252 29.4806 104.473C24.1974 126.622 26.5325 149.904 36.1088 170.562C45.6851 191.22 61.9439 208.048 82.2603 218.33C102.577 228.611 125.765 231.745 148.082 227.227C170.399 222.709 190.542 210.801 205.259 193.427C219.977 176.053 228.41 154.226 229.196 131.47C229.983 108.714 223.078 86.3567 209.596 68.0076L209.625 68.0367Z" fill="url(#paint1_radial_1611_1878)"/>
<defs>
<linearGradient id="paint0_linear_1611_1878" x1="26.7301" y1="128" x2="229.27" y2="128" gradientUnits="userSpaceOnUse">
<stop stop-color="#2E3192"/>
<stop offset="1" stop-color="#FF7D8A"/>
</linearGradient>
<radialGradient id="paint1_radial_1611_1878" cx="0" cy="0" r="1" gradientUnits="userSpaceOnUse" gradientTransform="translate(43.2779 133.549) rotate(47.27) scale(133.631 124.277)">
<stop stop-color="#FF9A8A"/>
<stop offset="1" stop-color="#FF007A"/>
</radialGradient>
</defs>
</svg>

<svg width="256" height="256" fill="none" xmlns="http://www.w3.org/2000/svg"><path d="M128 256c70.692 0 128-57.308 128-128C256 57.308 198.692 0 128 0 57.308 0 0 57.308 0 128c0 70.692 57.308 128 128 128Z" fill="#fff"/><path d="M199.613 151.871H56.397v47.742h143.216v-47.742Z" fill="#FFB0A6"/><path d="M199.613 104.129H56.397v47.742h143.216v-47.742Z" fill="#FFD0A8"/><path d="M199.613 56.397H56.397v47.742h143.216V56.397ZM174.182 56.397h25.431V30.965a29.979 29.979 0 0 1-25.431 25.432Z" fill="#FFE8D7"/><path d="m127.971 56.397 54.594 25.257-18.734 10.544-35.86-35.801Zm71.613 0v25.257h-17.019l-54.594 54.594v10.564l12.822 12.822 14.47-9.692 25.364-9.071h17.804a71.608 71.608 0 0 1-52.221 56.376 71.602 71.602 0 1 1-18.239-140.85V26.73a101.28 101.28 0 1 0 71.613 29.667ZM149.06 46.86a4.586 4.586 0 0 1-.678 2.49 4.714 4.714 0 0 1-1.938 1.707 6.99 6.99 0 0 1-5.757 0 4.682 4.682 0 0 1-1.939-1.706 4.595 4.595 0 0 1-.678-2.49V31.43h-5.689v15.875a7.992 7.992 0 0 0 1.395 4.681 9.184 9.184 0 0 0 3.877 3.12 15.904 15.904 0 0 0 11.698 0 9.23 9.23 0 0 0 3.877-3.12 7.992 7.992 0 0 0 1.395-4.681V31.43h-5.689l.126 15.43Zm27.564-15.43v15.372h-.194L164.8 31.43h-4.991v24.442h5.689v-15.38h.194l11.707 15.38h4.904V31.431h-5.679Zm10.719 0v24.444h5.689V31.43h-5.689Z" fill="url(#a)"/><path d="M209.625 68.037a86.54 86.54 0 0 1-72.138 135.947 86.54 86.54 0 0 1-57.452-22.805c-.455-.417-.891-.853-1.347-1.279-.456-.427-.892-.834-1.318-1.26l-.32-.33a86.527 86.527 0 0 1 50.921-146.763V26.7a101.269 101.269 0 1 0 81.625 41.307l.029.029Z" fill="url(#b)"/><defs><radialGradient id="b" cx="0" cy="0" r="1" gradientUnits="userSpaceOnUse" gradientTransform="rotate(47.27 -130.948 116.222) scale(133.631 124.277)"><stop stop-color="#FF9A8A"/><stop offset="1" stop-color="#FF007A"/></radialGradient><linearGradient id="a" x1="26.73" y1="128" x2="229.27" y2="128" gradientUnits="userSpaceOnUse"><stop stop-color="#2E3192"/><stop offset="1" stop-color="#FF7D8A"/></linearGradient></defs></svg>
